icons/device/microphone-fill.svg

<svg width="32" height="32" viewBox="0 0 32 32" xmlns="http://www.w3.org/2000/svg"><path fill-rule="evenodd" clip-rule="evenodd" d="M11 7C11 4.23858 13.2386 2 16 2C18.7614 2 21 4.23858 21 7V17C21 19.7614 18.7614 22 16 22C13.2386 22 11 19.7614 11 17V7ZM9 17V15H7V17C7 21.6326 10.5 25.4476 15 25.9451V28H10V30H22V28H17V25.9451C21.5 25.4476 25 21.6326 25 17V15H23V17C23 20.866 19.866 24 16 24C12.134 24 9 20.866 9 17Z"/></svg>

<svg viewBox="0 0 32 32" xmlns="http://www.w3.org/2000/svg"><path fill-rule="evenodd" d="M11 7a5 5 0 0110 0v10a5 5 0 01-10 0V7zM9 17v-2H7v2c0 4.633 3.5 8.448 8 8.945V28h-5v2h12v-2h-5v-2.055c4.5-.497 8-4.312 8-8.945v-2h-2v2a7 7 0 11-14 0z"/></svg>
